X:112
T:Soggy's
R:slip jig
C:Se\'an \'Og Graham
Z:id:hn-slipjig-112
M:9/8
L:1/8
K:A
~E3 cEB BAE | ~F3 BFA AFE | ~F3 BAB cef | a2f ecB BAF |
~E3 cEB BAE | ~F3 BFA AFE | ~F3 BAB cef | a2f ecB A3 :|
|: D2D FGA AGF | G2G EGA BAG | A2e dec eBe | AGF EFG ~A3 |
~D3 FGA AGF | ~G3 EGA BAG | A2e dec eBe | AGF EFG A3 :|
P:variations
|: ~E3 cEB BAE | ~F3 BFA AFE | FEF ~B3 cef | aef ecB BAF |
~E3 cEB BAE | ~F3 BFA AFE | ~F3 ~B3 cef | gaf ecB ~A3 :|
|: D2D FGA ABA | G2G EGA BAG | A2e dec eBe | AGF EFG ABA |
~D3 FGA ABA | ~G3 EGA BAG | Ace dec eBe | AGF EFG A3 :|

